dist/assets/unsplash.svg

<?xml version="1.0" encoding="UTF-8" standalone="no"?>
<svg
   role="img"
   viewBox="0 0 256 256"
   version="1.1"
   id="svg1"
   sodipodi:docname="unsplash.svg"
   inkscape:version="1.3.2 (091e20e, 2023-11-25, custom)"
   width="256"
   height="256"
   xmlns:inkscape="http://www.inkscape.org/namespaces/inkscape"
   xmlns:sodipodi="http://sodipodi.sourceforge.net/DTD/sodipodi-0.dtd"
   xmlns="http://www.w3.org/2000/svg"
   xmlns:svg="http://www.w3.org/2000/svg"
   xmlns:rdf="http://www.w3.org/1999/02/22-rdf-syntax-ns#"
   xmlns:cc="http://creativecommons.org/ns#"
   xmlns:dc="http://purl.org/dc/elements/1.1/">
  <defs
     id="defs1" />
  <sodipodi:namedview
     id="namedview1"
     pagecolor="#c8c8c8"
     bordercolor="#666666"
     borderopacity="1.0"
     inkscape:showpageshadow="2"
     inkscape:pageopacity="0.0"
     inkscape:pagecheckerboard="0"
     inkscape:deskcolor="#d1d1d1"
     inkscape:zoom="1.1132813"
     inkscape:cx="-85.782456"
     inkscape:cy="145.06667"
     inkscape:window-width="1920"
     inkscape:window-height="1111"
     inkscape:window-x="-9"
     inkscape:window-y="-9"
     inkscape:window-maximized="1"
     inkscape:current-layer="svg1" />
  <title
     id="title1">Unsplash</title>
  <metadata
     id="metadata1">
    <rdf:RDF>
      <cc:Work
         rdf:about="">
        <dc:title>Unsplash</dc:title>
      </cc:Work>
    </rdf:RDF>
  </metadata>
  <path
     style="fill:#f9f9f9;fill-opacity:1;fill-rule:nonzero;stroke:none;stroke-width:0;stroke-linecap:butt;stroke-linejoin:miter;stroke-miterlimit:4;stroke-dasharray:none;stroke-dashoffset:0"
     d="M 0,54.305795 C 0,24.313528 24.313548,0 54.305793,0 H 201.6942 V 0 C 231.68647,0 256,24.313535 256,54.305795 v 147.388405 0 c 0,29.99228 -24.31354,54.30579 -54.3058,54.30579 H 54.305793 v 0 C 24.313548,256 0,231.68645 0,201.6942 Z"
     stroke-linecap="round"
     id="path6" />
  <path
     d="M 90.102931,83.786826 V 26.941174 h 75.794109 v 56.845652 z m 75.794109,31.580794 h 63.16179 V 229.05883 H 26.941172 V 115.36762 h 63.161759 v 56.84566 h 75.794109 z"
     id="path1"
     style="stroke-width:8.42157" />
</svg>

<?xml version="1.0" encoding="UTF-8"?>
<svg width="256" height="256" role="img" version="1.1" viewBox="0 0 256 256" xmlns="http://www.w3.org/2000/svg" xmlns:cc="http://creativecommons.org/ns#" xmlns:dc="http://purl.org/dc/elements/1.1/" xmlns:rdf="http://www.w3.org/1999/02/22-rdf-syntax-ns#">
 <title>Unsplash</title>
 <metadata>
  <rdf:RDF>
   <cc:Work rdf:about="">
    <dc:title>Unsplash</dc:title>
   </cc:Work>
  </rdf:RDF>
 </metadata>
 <path d="m0 54.306c0-29.992 24.314-54.306 54.306-54.306h147.39v0c29.992 0 54.306 24.314 54.306 54.306v147.39c0 29.992-24.314 54.306-54.306 54.306h-147.39v0c-29.992 1e-5 -54.306-24.314-54.306-54.306z" fill="#f9f9f9" stroke-linecap="round"/>
 <path d="m90.103 83.787v-56.846h75.794v56.846zm75.794 31.581h63.162v113.69h-202.12v-113.69h63.162v56.846h75.794z" stroke-width="8.4216"/>
</svg>
